!! 00000] TT[WS
!!!OTL: Riben guizi de dapao
!!!ARE: Asia, China, Shanxi Lishan
!! Ethnic Group: Han
!! WI, 297
!!!SCT: J0358
!!!YEM: Copyright 1995, estate of Helmut Schaffrath.
**kern
*ICvox
*Ivox
*M2/4
*k[f#]
*G:
{4a
4dd
=1
8a
8b
8a
8g
=2
8a
8g
8f#
8e
=3
8.d
16d
8d
8e
=4
2d}
=5
{4g
8g
8a
=6
4dd
8ee
8dd
=7
8cc
8b
4a}
=8
{8g
8e
4dd
=9
4g
8g
8a
=10
4dd
8a
8b
=11
8a
8g
8f#
8e
=12
4d
8d
8e
=13
8g
4a
8e
=14
2d}
==
!!!AGN: Xiaodiao. Xinminge, Xuanchuan
!! Neue Text. Politische Liede
!!!ONB: ESAC (Essen Associative Code) Database: CHINA
!!!AMT: simple duple
!!!AIN: vox
!!!EED: Helmut Schaffrath
!!!EEV: 1.0
*-
